!!!!SEGMENT: pl-wtm--r-1226--009_lodwigowski-edward-stefan--sprawiedliwosc-zosiu-smiala.krn
!!!cenid: 18xx:1925
!!!COM: Łodwigowski, Edward Stefan
!!!COM-rismid: pe30111147
!!!CDT: 1815/08/14-1895/11/12
!!!CNT: Polish
!!!OTL: Sprawiedliwość Zosiu śmiała
!!!PDT:
!!!AGN:
!!!SMS-siglum: PL-Wtm
!!!SMS-shelfmark: R 1226
!!!SMS-shelfwork: 009 W
!!!SMS-variant:
!!!SMS-altvar:
!!!NIFC-rismid: 1001083989
!!!URL-scan: http://repozytorium.nifc.pl/skany/pl-wtm-nut--r1226-1227
!!!ONB-nifc: UWAGA: No. 57
**kern	**fing	**kern	**fing	**dynam
*part1	*part1	*part1	*part1	*part1
*staff2	*staff2	*staff1	*staff1	*
*I"Fortepian	*	*I"Fortepian	*	*
*>[A,A,B,B]	*>[A,A,B,B]	*>[A,A,B,B]	*>[A,A,B,B]	*>[A,A,B,B]
*>A	*>A	*>A	*>A	*>A
*clefF4	*	*clefG2	*	*
*k[f#c#g#]	*	*k[f#c#g#]	*	*
*M3/4	*	*M3/4	*	*
*all\right	*	*all\right	*	*
=1	=1	=1	=1	=1
*^	*	*	*	*
*2\right	*	*below	*	*	*
!	!	!	!LO:TX:i:t=Sprawiedliwość Zosiu śmiała. P.L.P.	!	!
!	!LO:N:vis=2	!	!LO:TX:Bi:t=No 57.	!	!
2.E/	4E\	5	8b\L	1	mf
.	.	.	8dd\J	3	.
.	4B 4G#\	.	(4.ff#\	5	.
.	4B 4G#\	.	.	.	.
.	.	.	8b\)	.	.
=2	=2	=2	=2	=2	=2
!	!LO:N:vis=2	!	!	!	!
2.A/	4A\	4	8.dd\L	.	.
.	.	.	16dd\Jk	.	.
.	4e 4c#\	.	(4cc#\	.	.
.	4e 4c#\	.	4ee\)	.	.
=3	=3	=3	=3	=3	=3
!	!LO:N:vis=2	!	!	!	!
2.E/	4E\	.	8b\L	.	.
.	.	.	8dd\J	.	.
.	4d 4G#\	.	(4.ff#\	.	.
.	4d 4G#\	.	.	.	.
.	.	.	8b\)	.	.
=4	=4	=4	=4	=4	=4
!	!LO:N:vis=2	!	!	!	!
2.A/	4A\	.	8.dd\L	.	.
.	.	.	16dd\Jk	.	.
.	4e 4c#\	.	4cc#\	.	.
.	8e 8c#\	.	8a\	.	.
.	8rF	.	8r	.	.
=5:|!|:	=5:|!|:	=5:|!|:	=5:|!|:	=5:|!|:	=5:|!|:
*>B	*>B	*>B	*>B	*>B	*>B
!	!LO:N:vis=2	!	!	!	!
2.E/	4E\	.	4.b\	4	.
.	4d 4G#\	.	.	.	.
.	.	.	8e/L	1	.
.	4d 4G#\	.	8g#/	2	.
.	.	.	8b/J	3	.
!!LO:LB:g=original
=6	=6	=6	=6	=6	=6
!	!LO:N:vis=2	!	!	!	!
2.A/	4A\	.	8dd\L	5	.
.	.	.	16r	.	.
.	.	.	16dd\Jk	4	.
.	4e 4c#\	.	4cc#\	.	.
.	4e 4c#\	.	4ee\	.	.
=7	=7	=7	=7	=7	=7
!	!LO:N:vis=2	!	!	!	!
2.E/	4E\	.	4.b\	3	.
.	4d 4G#\	.	.	.	.
.	.	.	8e/L	.	.
.	4d 4G#\	.	8g#/	.	.
.	.	.	8b/J	.	.
=8	=8	=8	=8	=8	=8
!	!LO:N:vis=2	!	!	!	!
2.A/	4A\	.	8dd\L	.	.
.	.	.	16r	.	.
.	.	.	16dd\Jk	4	.
.	4e 4c#\	.	(4cc#\	.	.
.	4e 4c#\	.	8a\)	1	.
.	.	.	8r	.	.
=9	=9	=9	=9	=9	=9
!	!LO:N:vis=2	!	!	!	!
2.E/	4E\	.	(8bb\L	5	.
.	.	.	8ee\	1	.
.	4d 4G#\	.	8dd#X\	2	.
.	.	.	8ee\	1	.
.	4d 4G#\	.	8gg#\	2	.
.	.	.	8bb\J	3	.
=10	=10	=10	=10	=10	=10
!	!LO:N:vis=2	!	!	!	!
2.A/	4A\	.	8ddd|\L)	5	.
.	.	.	16r	.	.
.	.	.	8eeeq	5	.
.	.	.	16ddd\Jk	4	.
.	4e 4c#\	.	4ccc#\	.	.
.	4e 4c#\	.	4eee\	.	.
=11	=11	=11	=11	=11	=11
!	!LO:N:vis=2	!	!	!	!
2.E/	4E\	.	(8bb\L	3	.
.	.	.	8gg#\	2	.
.	4d 4G#\	.	8ee\	1	.
.	.	.	8gg#\	2	.
.	4d 4G#\	.	8bb\	3	.
.	.	.	8ccc#\J	4	.
=12	=12	=12	=12	=12	=12
!	!LO:N:vis=2	!	!	!	!
2A/	4A\	.	8ddd\L)	.	.
.	.	.	16r	.	.
.	.	.	8eeeq	.	.
.	.	.	16ddd\Jk	.	.
.	4e 4c#\	.	4ccc#\	.	.
4ryy	8e 8c#\	.	8aa\	.	.
.	8r	.	8r	.	.
*v	*v	*	*	*	*
==:|!	==:|!	==:|!	==:|!	==:|!
*-	*-	*-	*-	*-
!!!system-decoration: {p1}
!!!RDF**kern: > = above
!!!RDF**kern: < = below
!!!RDF**kern: | = vertical stroke
!!!ENC: Andrzej Kubiczek
!!!END: 2021-05-01
!!!ENC: Andrzej Gręziak
!!!END: 2021-04-17
